!!!COM: Music21
!!!OTL: slide_Half-Way-To-Kerry
!!!OMV: slide_Half-Way-To-Kerry
**kern
*clefG2
*k[f#]
*G:
*M12/8
=1
8a
=
4b
8a
4cc
8a
4b
8g
4g
8dd
=
4gg
8dd
4a
8b
4.cc
4b
8a
=
4b
8a
4cc
8a
4b
8g
4g
8dd
=
8aL
8bJ
8aL
8d
8e
8f#J
4.g
4g
8ryy
!!linebreak:original
=||
*M12/8
8a
=
4b
8a
4cc
8a
4b
8g
4g
8dd
=
4gg
8dd
4a
8b
4.cc
4b
8a
=
4b
8a
4cc
8a
4b
8g
4g
8dd
=
8aL
8bJ
8aL
8d
8e
8f#J
4.g
4g
8ryy
!!linebreak:original
=||
8a
1ryy
4.ryy
=
8ddL
8cc#X
8ddJ
4gg
8dd
4aa
8dd
4.bb
=
4gg
8dd
4a
8b
4.ccn
4b
8a
=
8ddL
8cc#X
8ddJ
4gg
8dd
4aa
8dd
4.bb
=
8aaL
8ggJ
8ff#L
8dd
8ee
8ff#J
4.gg
4gg
8ryy
!!linebreak:original
=||
8a
1ryy
4.ryy
=
8ddL
8cc#X
8ddJ
4gg
8dd
4aa
8dd
4.bb
=
4gg
8dd
4a
8b
4.ccn
4b
8a
=
8ddL
8cc#X
8ddJ
4gg
8dd
4aa
8dd
4.bb
=
8aaL
8ggJ
8ff#L
8dd
8ee
8ff#J
4.gg
4gg
8ryy
=||
*-
